svg/file_document_check_outline.svg

<svg xmlns="http://www.w3.org/2000/svg" viewBox="0 0 24 24"><path d="m23.5 17-5 5-3.5-3.5 1.5-1.5 2 2 3.5-3.5zM6 2a2 2 0 0 0-2 2v16c0 1.11.89 2 2 2h7.81c-.36-.62-.61-1.3-.73-2H6V4h7v5h5v4.08c.33-.05.67-.08 1-.08.34 0 .67.03 1 .08V8l-6-6M8 12v2h8v-2m-8 4v2h5v-2Z"/></svg>

<svg xmlns="http://www.w3.org/2000/svg" id="mdi-file-document-check-outline" viewBox="0 0 24 24"><path d="M23.5 17L18.5 22L15 18.5L16.5 17L18.5 19L22 15.5L23.5 17M6 2C4.89 2 4 2.9 4 4V20C4 21.11 4.89 22 6 22H13.81C13.45 21.38 13.2 20.7 13.08 20H6V4H13V9H18V13.08C18.33 13.03 18.67 13 19 13C19.34 13 19.67 13.03 20 13.08V8L14 2M8 12V14H16V12M8 16V18H13V16Z" /></svg>
